neru-light-classic/32x32/apps/gnome-twitch.svg

<?xml version="1.0" encoding="UTF-8" standalone="no"?>
<svg
   xmlns:dc="http://purl.org/dc/elements/1.1/"
   xmlns:cc="http://creativecommons.org/ns#"
   xmlns:rdf="http://www.w3.org/1999/02/22-rdf-syntax-ns#"
   xmlns:svg="http://www.w3.org/2000/svg"
   xmlns="http://www.w3.org/2000/svg"
   xmlns:sodipodi="http://sodipodi.sourceforge.net/DTD/sodipodi-0.dtd"
   xmlns:inkscape="http://www.inkscape.org/namespaces/inkscape"
   height="32"
   width="32"
   version="1"
   id="svg12"
   sodipodi:docname="com.vinszent.GnomeTwitch.svg"
   inkscape:version="0.92.1 r">
  <metadata
     id="metadata18">
    <rdf:RDF>
      <cc:Work
         rdf:about="">
        <dc:format>image/svg+xml</dc:format>
        <dc:type
           rdf:resource="http://purl.org/dc/dcmitype/StillImage" />
      </cc:Work>
    </rdf:RDF>
  </metadata>
  <defs
     id="defs16" />
  <sodipodi:namedview
     pagecolor="#ffffff"
     bordercolor="#666666"
     borderopacity="1"
     objecttolerance="10"
     gridtolerance="10"
     guidetolerance="10"
     inkscape:pageopacity="0"
     inkscape:pageshadow="2"
     inkscape:window-width="640"
     inkscape:window-height="480"
     id="namedview14"
     showgrid="false"
     inkscape:zoom="8.8125"
     inkscape:cx="-5.5602837"
     inkscape:cy="16"
     inkscape:current-layer="svg12" />
  <rect
     style="opacity:1;fill:#7b5ab7;fill-opacity:1;fill-rule:evenodd;stroke:none;stroke-width:1.03534329;stroke-linecap:round;stroke-linejoin:bevel;stroke-miterlimit:4;stroke-dasharray:none;stroke-dashoffset:0;stroke-opacity:1"
     id="rect4497-3"
     width="28.203388"
     height="28.203388"
     x="1.8983059"
     y="1.8983059"
     ry="5.575182" />
  <path
     d="M 8,5.4999999 7,9.5000002 V 24.5 h 4 v 2 h 2 l 2,-2 h 3 l 7,-7 V 5.4999999 Z m 2,1 H 24 V 17 l -2.5,2.5 H 16 l -3,3 v -3 h -3 z m 4,3.0000003 V 15.5 h 2 V 9.5000002 Z m 5,0 V 15.5 h 2 V 9.5000002 Z"
     id="path10"
     inkscape:connector-curvature="0"
     style="fill:#ffffff;fill-rule:evenodd" />
</svg>

<svg xmlns="http://www.w3.org/2000/svg" height="32" width="32" version="1"><rect width="28.203" height="28.203" x="1.898" y="1.898" ry="5.575" fill="#7b5ab7" fill-rule="evenodd"/><path d="M8 5.5l-1 4v15h4v2h2l2-2h3l7-7v-12zm2 1h14V17l-2.5 2.5H16l-3 3v-3h-3zm4 3v6h2v-6zm5 0v6h2v-6z" fill="#fff" fill-rule="evenodd"/></svg>
